svg/alert_octagon.svg

<svg xmlns="http://www.w3.org/2000/svg" viewBox="0 0 24 24"><path d="M13 13h-2V7h2m-2 8h2v2h-2m4.73-14H8.27L3 8.27v7.46L8.27 21h7.46L21 15.73V8.27z"/></svg>

<?xml version="1.0" encoding="UTF-8"?><!DOCTYPE svg PUBLIC "-//W3C//DTD SVG 1.1//EN" "http://www.w3.org/Graphics/SVG/1.1/DTD/svg11.dtd"><svg xmlns="http://www.w3.org/2000/svg" xmlns:xlink="http://www.w3.org/1999/xlink" version="1.1" id="mdi-alert-octagon" width="24" height="24" viewBox="0 0 24 24"><path d="M13 13H11V7H13M11 15H13V17H11M15.73 3H8.27L3 8.27V15.73L8.27 21H15.73L21 15.73V8.27L15.73 3Z" /></svg>
